img/NB.svg

<svg width="84" height="84" viewBox="0 0 84 84" fill="none" xmlns="http://www.w3.org/2000/svg">
<circle cx="42" cy="42" r="41.5" fill="#CFB895" stroke="#15203F"/>
<path d="M61 20.5425V62.4187H59.3268L30.0233 28.8573L52.0017 62.4187H50.2825L27.7924 28.0736L42.7848 62.4187H41.2152L25.9755 27.506L33.5968 62.4187H32.122L24.4374 27.2064V62.4187H23V20.5425H24.6732L53.9767 54.104L31.9983 20.5425H33.7175L56.2105 54.8876L41.2152 20.5425H42.7848L58.0274 55.4552L50.4061 20.5425H51.878L59.5626 55.7548V20.5425H61Z" fill="#172343" stroke="#172343" stroke-width="0.5"/>
</svg>

<svg xmlns="http://www.w3.org/2000/svg" width="84" height="84" fill="none"><circle cx="42" cy="42" r="41.5" fill="#CFB895" stroke="#15203F"/><path fill="#172343" stroke="#172343" stroke-width=".5" d="M61 20.543v41.876h-1.673L30.023 28.857 52.002 62.42h-1.72l-22.49-34.345 14.993 34.345h-1.57l-15.24-34.913 7.622 34.913h-1.475l-7.685-35.213V62.42H23V20.543h1.673l29.304 33.561-21.979-33.561h1.72L56.21 54.888 41.216 20.542h1.57l15.242 34.913-7.62-34.913h1.471l7.685 35.213V20.543H61Z"/></svg>
